files/avis.svg

<svg clip-rule="evenodd" fill-rule="evenodd" stroke-linejoin="round" stroke-miterlimit="2" viewBox="0 0 560 400" xmlns="http://www.w3.org/2000/svg"><path d="m572.376 162.18v4.687h2.679c1.55 0 3.291-.442 3.291-2.243 0-1.99-1.927-2.444-3.656-2.444zm-2.964-9.265h2.964v6.875h2.163l3.807-6.875h3.589l-4.433 7.202c2.323.517 3.803 2.063 3.803 4.444 0 3.53-3.038 4.823-6.189 4.823h-5.704zm-6.618 8.167c0 6.823 5.52 12.338 12.291 12.338 6.85 0 12.396-5.515 12.396-12.338 0-6.746-5.546-12.35-12.396-12.35-6.771 0-12.291 5.604-12.291 12.35zm-2.318 0c0-8.109 6.551-14.453 14.609-14.453 8.151 0 14.709 6.344 14.709 14.453 0 8.103-6.558 14.578-14.709 14.578-8.058 0-14.609-6.475-14.609-14.578zm-213.017-156.725h41.608v171.303h-41.608zm-16.574 171.303h-45.719l-39.676-123.79-40.391 123.79h-46.45l64.833-171.303h41.375zm-146.992-171.303-70.062 171.303h-41.211l-72.62-171.303h45.768l12.56 33.624h66.321l13.299-33.624zm-70.633 66.765h-43.051l21.753 58.798zm404.901 61.79c-10.885 9.763-20.839 12.985-31.482 12.985-10.644 0-23.958-3.642-23.958-17.191 0-11.355 10.173-15.205 26.39-20.31 23.223-7.502 53.219-17.192 53.219-51.304 0-39.428-31.696-57.092-65.561-57.092-24.443 0-49.13 8.945-64.119 24.677l25.367 26.033c10.106-10.879 25.193-16.599 38.752-16.599 12.568 0 23.706 4.859 23.706 18.633 0 13.066-13.078 17.436-35.571 24.723-21.757 7.008-43.779 17.87-43.779 48.819 0 37.99 34.351 53.714 66.272 53.714 19.368 0 41.142-7.269 56.139-21.034z" fill="#d4002a" fill-rule="nonzero" transform="matrix(.610383 0 0 -.609168 110 254.825)"/></svg>

<?xml version="1.0" encoding="UTF-8" standalone="no"?>
<!DOCTYPE svg PUBLIC "-//W3C//DTD SVG 1.1//EN" "http://www.w3.org/Graphics/SVG/1.1/DTD/svg11.dtd">
<svg width="100%" height="100%" viewBox="0 0 560 400" version="1.1" xmlns="http://www.w3.org/2000/svg" xmlns:xlink="http://www.w3.org/1999/xlink" xml:space="preserve" xmlns:serif="http://www.serif.com/" style="fill-rule:evenodd;clip-rule:evenodd;stroke-linejoin:round;stroke-miterlimit:2;">
    <g transform="matrix(0.610383,0,0,-0.609168,110,254.825)">
        <path d="M572.376,162.18L572.376,166.867L575.055,166.867C576.605,166.867 578.346,166.425 578.346,164.624C578.346,162.634 576.419,162.18 574.69,162.18L572.376,162.18ZM569.412,152.915L572.376,152.915L572.376,159.79L574.539,159.79L578.346,152.915L581.935,152.915L577.502,160.117C579.825,160.634 581.305,162.18 581.305,164.561C581.305,168.091 578.267,169.384 575.116,169.384L569.412,169.384L569.412,152.915ZM562.794,161.082C562.794,167.905 568.314,173.42 575.085,173.42C581.935,173.42 587.481,167.905 587.481,161.082C587.481,154.336 581.935,148.732 575.085,148.732C568.314,148.732 562.794,154.336 562.794,161.082ZM560.476,161.082C560.476,152.973 567.027,146.629 575.085,146.629C583.236,146.629 589.794,152.973 589.794,161.082C589.794,169.185 583.236,175.66 575.085,175.66C567.027,175.66 560.476,169.185 560.476,161.082ZM347.459,4.357L389.067,4.357L389.067,175.66L347.459,175.66L347.459,4.357ZM330.885,175.66L285.166,175.66L245.49,51.87L205.099,175.66L158.649,175.66L223.482,4.357L264.857,4.357L330.885,175.66L330.885,175.66ZM183.893,4.357L113.831,175.66L72.62,175.66L0,4.357L45.768,4.357L58.328,37.981L124.649,37.981L137.948,4.357L183.893,4.357ZM113.26,71.122L70.209,71.122L91.962,129.92L113.26,71.122ZM518.161,132.912C507.276,142.675 497.322,145.897 486.679,145.897C476.035,145.897 462.721,142.255 462.721,128.706C462.721,117.351 472.894,113.501 489.111,108.396C512.334,100.894 542.33,91.204 542.33,57.092C542.33,17.664 510.634,0 476.769,0C452.326,0 427.639,8.945 412.65,24.677L438.017,50.71C448.123,39.831 463.21,34.111 476.769,34.111C489.337,34.111 500.475,38.97 500.475,52.744C500.475,65.81 487.397,70.18 464.904,77.467C443.147,84.475 421.125,95.337 421.125,126.286C421.125,164.276 455.476,180 487.397,180C506.765,180 528.539,172.731 543.536,158.966L518.161,132.912" style="fill:rgb(212,0,42);fill-rule:nonzero;"/>
    </g>
</svg>
